!!!COM: Palestrina, Giovanni Perluigi da
!!!OPR: Eripe me de inimicis
!!!OTL: Agnus II
**kern	**kern	**kern	**kern	**kern	**kern
*Ibass	*Itenor	*Itenor	*Icalto	*Icalto	*Icant
!Bassus	!Tenor 2	!Tenor 1	!Altus 2	!Altus 1	!Cantus
*clefF4	*clefGv2	*clefGv2	*clefG2	*clefG2	*clefG2
*k[]	*k[]	*k[]	*k[]	*k[]	*k[]
*D:dor	*D:dor	*D:dor	*D:dor	*D:dor	*D:dor
*M4/2	*M4/2	*M4/2	*M4/2	*M4/2	*M4/2
=1	=1	=1	=1	=1	=1
0r	0r	0r	0r	0r	1a
.	.	.	.	.	2ee
.	.	.	.	.	[2ee
=2	=2	=2	=2	=2	=2
0r	0r	0r	1r	0r	2ee]
.	.	.	.	.	4dd
.	.	.	.	.	4cc
.	.	.	1d	.	1ff
=3	=3	=3	=3	=3	=3
0r	0r	0r	2a	0r	1ee
.	.	.	1a	.	.
.	.	.	.	.	1a
.	.	.	4g	.	.
.	.	.	4f	.	.
=4	=4	=4	=4	=4	=4
0r	0r	0r	1b-	0r	1dd
.	.	.	2a	.	2cc
.	.	.	2d	.	2a
=5	=5	=5	=5	=5	=5
0r	1A	0r	1a	0r	2cc
.	.	.	.	.	2cc
.	2e	.	2g#	.	2b
.	[2e	.	2g#	.	4a
.	.	.	.	.	4b
=6	=6	=6	=6	=6	=6
1r	2e]	1A	1.a	0r	4cc
.	.	.	.	.	4dd
.	4d	.	.	.	2.ee
.	4c	.	.	.	.
1D	1f	1d	.	.	.
.	.	.	.	.	4dd
.	.	.	2a	.	2dd
=7	=7	=7	=7	=7	=7
2A	1e	2c	1a	0r	2.ee
1A	.	2c	.	.	.
.	.	.	.	.	4dd
.	1A	[1f	1a	.	1cc
4G	.	.	.	.	.
4F	.	.	.	.	.
=8	=8	=8	=8	=8	=8
1B-	1d	2f]	0r	2r	1dd
.	.	2g	.	2d	.
1A	2c	2f	.	2a	2r
.	2c	2e	.	[2a	2a
=9	=9	=9	=9	=9	=9
2r	2f	0d	0r	2a]	1dd
2D	2a	.	.	4g	.
.	.	.	.	4f	.
1G	1g	.	.	1b-	2dd
.	.	.	.	.	2dd
=10	=10	=10	=10	=10	=10
2F	2c	0r	2r	1a	2ff
2F	2.f	.	2A	.	2cc
1B-	.	.	1d	2r	1dd
.	4d	.	.	.	.
.	[2f	.	.	2d	.
=11	=11	=11	=11	=11	=11
1.A	4f]	2r	2c	1a	0ee
.	4e	.	.	.	.
.	2.e	2A	1c	.	.
.	.	2e	.	2a	.
.	8d	.	.	.	.
.	8c	.	.	.	.
4G	2B	[2e	[2g	2b	.
4F	.	.	.	.	.
=12	=12	=12	=12	=12	=12
2E	1c	2e]	2g]	2g	0r
2F	.	4d	2.f	2.a	.
.	.	4c	.	.	.
4D	2d	1f	.	.	.
4E	.	.	4e	4g	.
4F	[2A	.	2d	4a	.
4G	.	.	.	4b	.
=13	=13	=13	=13	=13	=13
1A	4A]	0e	4c	4cc	1a
.	4B	.	4d	4b	.
.	4c	.	2.e	1a	.
.	4A	.	.	.	.
1E	1B	.	.	.	2ee
.	.	.	4d	.	.
.	.	.	2B	2g#	[2ee
=14	=14	=14	=14	=14	=14
1A	1A	2r	1A	0a	2ee]
.	.	2A	.	.	4dd
.	.	.	.	.	4cc
1r	1r	1d	2r	.	1ff
.	.	.	2d	.	.
=15	=15	=15	=15	=15	=15
0r	1A	2c	2a	0r	1ee
.	.	2c	1a	.	.
.	1d	2d	.	.	1a
.	.	[2a	4g	.	.
.	.	.	4f	.	.
=16	=16	=16	=16	=16	=16
0r	2G	4a]	1b-	1r	0dd
.	.	4g	.	.	.
.	2G	2.g	.	.	.
.	1d	.	1a	2r	.
.	.	4f	.	.	.
.	.	2f	.	2d	.
=17	=17	=17	=17	=17	=17
0r	2.A	1.e	2r	2a	2cc
.	.	.	2e	1a	2cc
.	4B	.	.	.	.
.	2c	.	1a	.	2ee
.	2d	2d	.	4g	2ff
.	.	.	.	4f	.
=18	=18	=18	=18	=18	=18
0r	1G	1r	2g	1b-	4ee
.	.	.	.	.	4dd
.	.	.	2g	.	1dd
.	1A	2r	2f	[1a	.
.	.	2A	2e	.	2cc#
=19	=19	=19	=19	=19	=19
1D	0r	1d	1f	1a]	1dd
2A	.	2c	2.e	2r	1r
[2A	.	2c	.	2e	.
.	.	.	4d	.	.
=20	=20	=20	=20	=20	=20
2A]	0r	2e	1c	1a	2r
4G	.	1f	.	.	2a
4F	.	.	.	.	.
1B-	.	.	1d	2f	1dd
.	.	4e	.	2g	.
.	.	4d	.	.	.
=21	=21	=21	=21	=21	=21
1A	2r	2e	0r	1.a	2cc
.	2A	4a	.	.	2cc
.	.	4g	.	.	.
2r	1d	4f	.	.	1ff
.	.	4e	.	.	.
2D	.	2d	.	2a	.
=22	=22	=22	=22	=22	=22
1A	2c	2e	1r	1cc	1ee
.	2c	2.A	.	.	.
1F	1f	.	2r	[1a	2dd
.	.	4B	.	.	.
.	.	2c	[2c	.	[2cc
=23	=23	=23	=23	=23	=23
1F	2.f	1A	2c]	1a]	4cc]
.	.	.	.	.	4b
.	.	.	1f	.	1a
.	4e	.	.	.	.
2B-	4d	1r	.	1r	.
.	4c	.	.	.	.
2B-	[2d	.	2d	.	2g
=24	=24	=24	=24	=24	=24
1A	2d]	1r	2f	0r	[0a
.	4c	.	2.e	.	.
.	4B	.	.	.	.
[1A	2c	2.e	.	.	.
.	.	.	4c	.	.
.	2A	.	[2cc	.	.
.	.	4e	.	.	.
=25	=25	=25	=25	=25	=25
2A]	2c	2e	2cc]	0r	1a]
2D	2.d	2f	4b	.	.
.	.	.	4a	.	.
2G	.	1d	2b	.	1r
.	4c	.	.	.	.
2F	2A	.	[2a	.	.
=26	=26	=26	=26	=26	=26
1E	1B	1.e	2a]	0r	1r
.	.	.	2g	.	.
1A	1A	.	2.cc	.	2.ee
.	.	2A	.	.	.
.	.	.	4b	.	4ee
=27	=27	=27	=27	=27	=27
0r	0r	2c	4a	2.a	2ee
.	.	.	4g	.	.
.	.	1d	4f	.	2ff
.	.	.	4e	4a	.
.	.	.	2f	2a	1dd
.	.	2G	[2g	2b-	.
=28	=28	=28	=28	=28	=28
0r	2.e	1c	2g]	1g	1ee
.	.	.	2e	.	.
.	4e	.	.	.	.
.	2e	1A	2r	1a	2.cc
.	2f	.	[2a	.	.
.	.	.	.	.	8dd
.	.	.	.	.	8ee
=29	=29	=29	=29	=29	=29
0r	0d	0r	4a]	0r	2.ff
.	.	.	4a	.	.
.	.	.	2a	.	.
.	.	.	.	.	4ee
.	.	.	2b-	.	2dd
.	.	.	[2a	.	2cc
=30	=30	=30	=30	=30	=30
1r	1e	2r	2a]	1r	1b
.	.	2.e	2g#	.	.
2.A	1r	.	1a	2r	2.cc
.	.	4e	.	.	.
.	.	2e	.	[2a	.
4A	.	.	.	.	4cc
=31	=31	=31	=31	=31	=31
2A	0r	2f	0r	2a]	2cc
2B-	.	1d	.	2f	2dd
1G	.	.	.	1g	1b-
.	.	[2e	.	.	.
=32	=32	=32	=32	=32	=32
1A	1r	2e]	0r	2c	0a
.	.	1d	.	2f	.
[1A	2.e	.	.	1e	.
.	.	4c#	.	.	.
.	4e	4B	.	.	.
=33	=33	=33	=33	=33	=33
2A]	2e	2c#	2.a	1r	0r
2D	2f	2d	.	.	.
.	.	.	4a	.	.
2F	1d	2A	2a	2r	.
2G	.	[2d	2b-	[2g	.
=34	=34	=34	=34	=34	=34
1E	1e	4d]	1g	4g]	0r
.	.	4c#	.	4g	.
.	.	4c#	.	2g	.
.	.	4B	.	.	.
2D	2r	1d	[1a	2f	.
[2d	2f	.	.	2d	.
=35	=35	=35	=35	=35	=35
2d]	2e	1A	1a]	1e	2.ee
4c	2.a	.	.	.	.
4B	.	.	.	.	4ee
2c#	.	1r	1r	2.a	2ee
.	4g	.	.	.	.
2d	4f	.	.	.	2ff
.	4e	.	.	4a	.
=36	=36	=36	=36	=36	=36
2d	2f	0r	0r	2a	1dd
2G	2g	.	.	2b-	.
1c	2.e	.	.	1g	2ee
.	.	.	.	.	[2cc
.	4d	.	.	.	.
=37	=37	=37	=37	=37	=37
1A	1c	2.e	1r	2a	4cc]
.	.	.	.	.	4dd
.	.	.	.	2.cc	1ee
.	.	4e	.	.	.
1r	1A	2e	2r	.	.
.	.	.	.	4b	.
.	.	2f	[2a	4a	2cc
.	.	.	.	4g	.
=38	=38	=38	=38	=38	=38
0r	0r	1d	4a]	2f	1ff
.	.	.	4a	.	.
.	.	.	2a	2f	.
.	.	[1e	1cc	2g	1ee
.	.	.	.	[2a	.
=39	=39	=39	=39	=39	=39
2.E	2r	1e]	1dd	2a]	1.ee
.	2.e	.	.	1g	.
4E	.	.	.	.	.
2E	.	1r	2.cc	.	.
.	4e	.	.	.	.
2F	2c	.	.	4f	2a
.	.	.	4a	4e	.
=40	=40	=40	=40	=40	=40
1D	1d	1r	4b	1f	1r
.	.	.	4a	.	.
.	.	.	1a	.	.
1E	1B	2r	.	1e	2r
.	.	[2e	2g#	.	[2ee
=41	=41	=41	=41	=41	=41
1A	2c	4e]	1a	2r	4ee]
.	.	4e	.	.	4ee
.	2.A	2c	.	2.a	2ee
1D	.	[1d	1f	.	2.ff
.	4A	.	.	4a	.
.	[2d	.	.	2a	.
.	.	.	.	.	4ee
=42	=42	=42	=42	=42	=42
1G	2d]	1d]	1g	1b-	2dd
.	1G	.	.	.	2.gg
1C	.	1c	1e	1g	.
.	.	.	.	.	4ff
.	[2c	.	.	.	4ee
.	.	.	.	.	4dd
=43	=43	=43	=43	=43	=43
1F	2c]	[0A	1f	[0a	2cc
.	2c	.	.	.	2.ff
1D	2d	.	1f	.	.
.	.	.	.	.	4ee
.	2d	.	.	.	[2dd
=44	=44	=44	=44	=44	=44
0A	0e	1A]	2e	1a]	2dd]
.	.	.	2.a	.	4cc#
.	.	.	.	.	4b
.	.	2r	.	2r	1cc#
.	.	.	4a	.	.
.	.	[2A	2a	2e	.
=45	=45	=45	=45	=45	=45
1D	[0d	4A]	1f#	2a	[0dd
.	.	4A	.	.	.
.	.	2A	.	2a	.
2.G	.	1B-	2g	2g	.
.	.	.	[2d	[2b-	.
4A	.	.	.	.	.
=46	=46	=46	=46	=46	=46
2B-	1d_	2G	4d]	2b-]	1dd_
.	.	.	4e	.	.
2F	.	2A	2f	2a	.
1G	1d_	1B-	2d	1g	1dd_
.	.	.	[2g	.	.
=47	=47	=47	=47	=47	=47
[0D	0d]	[0A	2g]	[0a	0dd]
.	.	.	4f#	.	.
.	.	.	4e	.	.
.	.	.	1f#	.	.
=48	=48	=48	=48	=48	=48
1D_	[0d	1A_	[0f#	1a_	[0dd
1D_	.	1A_	.	1a_	.
=49	=49	=49	=49	=49	=49
0D]	0d]	0A]	0f#]	0a]	0dd]
==	==	==	==	==	==
*-	*-	*-	*-	*-	*-
!!!CDT: 1525/^1526/-1594/2/2
!!!OCY: Italia
!!!AGN: Mass (Parody)
!!!AST: renaissance, vocal
!!!ASW: Motet 1559 (Maillard)
!!!PWK: Masses, Book 4
!!!RNB: Cadence finals: A
!!!YOR: Le Opere Complete, v. 10, p. 79
!!!YOO: Rome, Italy: Fratelli Scalera
!!!END: 1992//
!!!EED: John Miller
!!!YEC: Copyright 2000, John Miller
!!!YEN: United States of America
!!!YEM: Rights to all derivative electronic formats reserved.
!!!YEM: Refer to licensing agreement for further details.
!!!YEM: This file must be accompanied by the licensing agreement.
!!!YEM: A copy of the licensing agreement may be found at http://www.music-cog.ohio-state.edu/HumdrumDatabases/Palestrina/license.txt
!!!EMD: converted to Humdrum by Bret Aarden
